icons/extend-trim-16.svg

<svg xmlns="http://www.w3.org/2000/svg" viewBox="0 0 16 16"><path d="M14 4V3h-3v3h3V5h2V4zm-2 1V4h1v1zM9 4h1v1H9zm2 6h1v1h-1zm2 0h1v1h-1zm2 0h1v1h-1zm-8 3h1v3H7zm1-5H7V0h1zm-2 2H0v1h6v1h3V9H6zm1 0h1v1H7z"/><path fill="none" d="M0 0h16v16H0z"/></svg>

<svg id="icons" xmlns="http://www.w3.org/2000/svg" viewBox="0 0 16 16"><defs><style>.cls-1{fill:none;}</style></defs><path d="M14,4V3H11V6h3V5h2V4ZM12,5V4h1V5ZM9,4h1V5H9Zm2,6h1v1H11Zm2,0h1v1H13Zm2,0h1v1H15ZM7,13H8v3H7ZM8,8H7V0H8ZM6,10H0v1H6v1H9V9H6Zm1,0H8v1H7Z"/><rect class="cls-1" width="16" height="16"/></svg>
